!!!!SEGMENT: pl-kk--kk-i-6--007_anonim--gloria-patri.krn
!!!cenid: 16xx:962
!!!COM: Anonim
!!!COM-rismID:
!!!CDT:
!!!CNT:
!!!OTL: Gloria patri
!!!PDT:
!!!AGN: Sacred
!!!SMS-siglum: PL-Kk
!!!SMS-shelfmark: Kk.I.6
!!!SMS-shelfwork: 007 W
!!!SMS-variant:
!!!SMS-altvar:
!!!NIFC-rismSourceID: 1001135596
!!!NIFC-islandoraID: pl-kk:1634
!!!URL-pdf-islandora: https://repozytorium.nifc.pl/islandora/object/pl-kk%3A1634/datastream/PDF/view
!!!URL-scan: https://polish.musicsources.pl/pl/lokalizacje/galeria/rekopisy/6133 @EN{Scan on Polish Music Herritage in Open Access Website} @PL{Skany w portalu Dziedzictwo Muzyki Polskiej w otwartym dostępie}
!!!ONB-nifc: UWAGA: C (skan 0006, s. 8), T (skan 0104-0105, s. 12-13), B (skan 0215-0216, s. 11-12) Następny utwór: Kyrie
!!!AIN: 1 empty 1 tenor 1 vox
!!!key:
**kern	**text	**kern	**text	**kern	**text
*part3	*part3	*part2	*part2	*part1	*part1
*staff3	*staff3	*staff2	*staff2	*staff1	*staff1
*group1	*	*group1	*	*group1	*
*Iempty	*	*Itenor	*	*Ivox	*
*I"Baſsus.	*	*I"Tenor.	*	*I"Cantus.	*
*I'B	*	*I'T	*	*I'S	*
*clefF4	*	*clefC4	*	*clefC4	*
*k[]	*	*k[]	*	*k[]	*
*d:	*	*d:	*	*d:	*
*M2/1	*	*M2/1	*	*M2/1	*
*met(C|)	*	*met(C|)	*	*met(C|)	*
=1-	=1-	=1-	=1-	=1-	=1-
1D	Glo-	1A	Glo-	1F	Glo-
*	*	*2\right	*	*lig	*
2BB-X/	-ri-	2d\	-ri-	1G	-ri-
2C/	-a	1c\	-a	.	.
=2-	=2-	=2-	=2-	=2-	=2-
2.FF/	Pa-	.	.	1A	.
.	.	2f\	Pa-	.	.
4GG/	.	.	.	.	.
*	*	*	*	*Xlig	*
!	!	!	!	!LO:TX:t=P:global:problem=rozdzielacz słów	!
1AA	.	1.e	-tri	1A,<	-a
=3-	=3-	=3-	=3-	=3-	=3-
!LO:TX:t=P:global:problem=rozdzielacz słów	!	!	!	!	!
2AA,</	-tri	.	.	1A	Pa-
2AA/	et	2e\	et	.	.
2D/	fi-	2f\	fi-	1A,<	-tri
4C/	.	4e\	.	.	.
4BBny/	.	4d\	.	.	.
=4-	=4-	=4-	=4-	=4-	=4-
2C/	.	2e\	.	1A,<	et
2D/	-li-	1d	.	.	.
*custos:D	*	*	*	*	*
1AA	-o	.	.	1A	Fi-
.	.	4c\	.	.	.
.	.	4B\	.	.	.
!LO:PB:g=original	!	!	!	!	!
=5-	=5-	=5-	=5-	=5-	=5-
2r	.	2c\	.	1A	-li-
1D	et	2d\	-li-	.	.
!	!	!LO:TX:t=P:global:problem=rozdzielacz słów	!	!	!
.	.	1A,<	-o	1A,<	-o
!LO:TX:t=P:problem=♯ below	!	!	!	!	!
2C#X/	Spi-	.	.	.	.
=6-	=6-	=6-	=6-	=6-	=6-
*lig	*	*	*	*	*
1D	-ri-	1F	et	1A,<	et
*col	*	*	*	*	*
*	*	*custos:F	*	*	*
2.AA/	.	1E	Spi-	1A	Spi-
*Xlig	*	*	*	*	*
4AA/	-tu-	.	.	.	.
*Xcol	*	*	*	*	*
!	!	!LO:LB:g=original	!	!	!
=7-	=7-	=7-	=7-	=7-	=7-
*	*	*	*	*lig	*
2D,</	-i	2.F/	-ri-	1A	-ri-
*2\right	*	*	*	*	*
2.F\	San-	.	.	.	.
.	.	4F/	-tu-	.	.
.	.	2C/	-i	1c	.
8E\L	.	.	.	.	.
8D\J	.	.	.	.	.
2E\	.	1c\	San-	.	.
*	*	*	*	*Xlig	*
=8-	=8-	=8-	=8-	=8-	=8-
2.F\	.	.	.	1A	-tu-
.	.	2A/	-cto	.	.
4E\	.	.	.	.	.
2D/	.	2r	.	1A,<	-i
2Cny/	.	2.e\	San-	.	.
=9-	=9-	=9-	=9-	=9-	=9-
*	*	*	*	*lig	*
1D	.	.	.	1A	San-
.	.	4d\	.	.	.
.	.	1d	.	.	.
*	*	*	*	*custos:G	*
0E	.	.	.	1G	.
!	!	!LO:TX:t=P:problem=♯ above	!	!	!
.	.	4c#X\	.	.	.
.	.	4B\	.	.	.
*	*	*	*	*Xlig	*
!	!	!	!	!LO:LB:g=original	!
=10-	=10-	=10-	=10-	=10-	=10-
*	*	*	*	*lig	*
!	!	!LO:TX:t=P:problem=♯ below	!	!	!
.	.	1c#X	.	1G	-cto
1D	.	2.d\	.	1A,<	.
.	.	4cny\	.	.	.
*	*	*	*	*Xlig	*
=11-	=11-	=11-	=11-	=11-	=11-
*	*	*	*	*lig	*
2GG,</	-cto	2B\	.	1G	Si-
*custos:D	*	*	*	*	*
2C/	Si-	2c\	.	.	.
!LO:LB:g=original	!	!	!	!	!
2D/	-cut	4A/	.	1F	.
.	.	4G/	.	.	.
2.F\	e-	4A/	.	.	.
.	.	4B\	.	.	.
*	*	*	*	*Xlig	*
=12-	=12-	=12-	=12-	=12-	=12-
*	*	*custos:d	*	*	*
*	*	*	*	*lig	*
.	.	0c	-cto	1G	-cut
8E\L	.	.	.	.	.
8D\J	.	.	.	.	.
2E\	.	.	.	.	.
2.F\	.	.	.	1A,<	.
4E\	.	.	.	.	.
*	*	*	*	*Xlig	*
!	!	!LO:LB:g=original	!	!	!
=13-	=13-	=13-	=13-	=13-	=13-
*lig	*	*	*	*	*
1D	.	2r	.	1A	e-
.	.	1d	Si-	.	.
1AA	.	.	.	1A,<	-rat
!	!	!LO:TX:t=P:problem=♯ below	!	!	!
.	.	2c#X\	-cut	.	.
*Xlig	*	*	*	*	*
=14-	=14-	=14-	=14-	=14-	=14-
2D,</	-rat	2.d\	e-	1A,<	in
2D/	in	.	.	.	.
.	.	4d\	-rat	.	.
2D/	prin-	2d\	in	1A	prin-
4D/	-ci-	2D/	prin-	.	.
4E\	.	.	.	.	.
=15-	=15-	=15-	=15-	=15-	=15-
4F\	.	4D/	-ci-	1A	-ci-
4G\	.	4E/	.	.	.
4A\	.	4F/	.	.	.
4G\	.	4G/	.	.	.
4F\	.	4A/	.	1A	-pi-
4E\	.	4G/	.	.	.
1D\	.	4F/	.	.	.
.	.	4E/	.	.	.
=16-	=16-	=16-	=16-	=16-	=16-
.	.	4F/	.	1A,<	-o
.	.	4E/	.	.	.
*custos:D	*	*	*	*	*
2D/	-pi-	4F/	.	.	.
.	.	4G/	.	.	.
!LO:LB:g=original	!	!	!	!	!
2D,</	-o	2A/	.	1A,<	et
1F\	et	2D/	-pi-	.	.
=17-	=17-	=17-	=17-	=17-	=17-
*	*	*	*	*lig	*
.	.	2D/	-o	1A	nunc
*	*	*custos:G	*	*	*
2D/	Nunc	2F/	et	.	.
!	!	!LO:PB:g=original	!	!	!
1C	et	2G/	nunc	1c	.
.	.	2G/	et	.	.
*	*	*	*	*Xlig	*
=18-	=18-	=18-	=18-	=18-	=18-
2D/	Sem-	2F/	Sem-	1A	et
4C/	.	4E/	.	.	.
4BB/	.	4D/	.	.	.
*	*	*	*	*lig	*
2C/	.	2E/	.	1A	Sem-
2D/	.	2F/	.	.	.
=19-	=19-	=19-	=19-	=19-	=19-
*	*	*	*	*custos:G	*
2.GG/	.	4G/	.	1G	.
.	.	4A/	.	.	.
.	.	4B\	.	.	.
4AA/	.	4cny\	.	.	.
*	*	*	*	*Xlig	*
*	*	*	*	*lig	*
!	!	!	!	!LO:LB:g=original	!
2BB/	.	2d\	.	1G	-per
2C/	.	4c\	.	.	.
.	.	4B\	.	.	.
=20-	=20-	=20-	=20-	=20-	=20-
4FF/	.	1c	.	1A,<	.
4GG/	.	.	.	.	.
4AA/	.	.	.	.	.
4BB/	.	.	.	.	.
*lig	*	*	*	*Xlig	*
*	*	*	*	*lig	*
1C	.	2c\	-per	1G	et
.	.	2.c\	Sem-	.	.
=21-	=21-	=21-	=21-	=21-	=21-
1D	.	.	.	1F,<	.
.	.	8B\L	.	.	.
.	.	8A\J	.	.	.
.	.	2B\	.	.	.
*Xlig	*	*	*	*Xlig	*
*	*	*	*	*lig	*
1C	.	1c	-per	1G	in
=22-	=22-	=22-	=22-	=22-	=22-
*custos:F	*	*	*	*	*
2FF/	-per	2c\	et	1A,<	.
*	*	*custos:c	*	*	*
!LO:LB:g=original	!	!	!	!	!
1F	et	2c\	in	.	.
*	*	*	*	*Xlig	*
!	!	!LO:LB:g=original	!	!	!
.	.	4c\	Sae-	1A	Sae-
.	.	4A/	.	.	.
2D/	in	1d\	.	.	.
=23-	=23-	=23-	=23-	=23-	=23-
2A\	Sae-	.	.	1A	-cu-
!	!	!LO:TX:t=P:problem=♯ above	!	!	!
2AA/	-cu-	4c#X\	.	.	.
.	.	4B\	.	.	.
1AA	-la	2c#\	.	1A,<	-la
!	!	!LO:TX:t=P:problem=♯ below	!	!	!
.	.	2c#X\	-cu-	.	.
=24-	=24-	=24-	=24-	=24-	=24-
!	!	!LO:SIC:v:l:s=-la	!	!	!
2.D/	Sae-	2d\	-lo	1A	Sae-
.	.	2d\	Sae-	.	.
4E\	.	.	.	.	.
*	*	*	*	*lig	*
2F\	-cu-	2cny\	-cu-	1A	-cu-
2F\	-lo-	2.A/	-lo-	.	.
=25-	=25-	=25-	=25-	=25-	=25-
1E	rum	.	.	1B	.
!	!	!LO:TX:t=P:problem=♯ below	!	!	!
.	.	8G#X/L	.	.	.
!	!	!LO:SIC:v:s=8F#/J	!	!	!
.	.	8F/J	.	.	.
.	.	2G#/	.	.	.
*	*	*	*	*Xlig	*
*	*	*	*	*lig	*
2.AA/	A-	1.A	-rum	1c	.
4BB/	.	.	.	.	.
=26-	=26-	=26-	=26-	=26-	=26-
2C/	.	.	.	1A	.
*	*	*2\left	*	*	*
2D/	.	2.d\	Sae-	.	.
*	*	*	*	*Xlig	*
4GG/	.	.	.	1G	lo-
4AA/	.	4c\	-cu-	.	.
4BB/	.	2B\	-lo-	.	.
4C/	.	.	.	.	.
=27-	=27-	=27-	=27-	=27-	=27-
0D	.	0A	-ru(m)	1F,<	-rum
*	*	*	*	*lig	*
.	.	.	.	1F	A-
=28-	=28-	=28-	=28-	=28-	=28-
1AA	.	1A	A-	1E	.
*	*	*	*	*Xlig	*
1Dl;;	-men.	1Al;;	-men.	1Dl;;	-men
==	==	==	==	==	==
*-	*-	*-	*-	*-	*-
!!!system-decoration: [g1]
!!!RDF**kern: > = above
!!!RDF**kern: < = below
!!!RDF**kern: l = terminal long
!!!ENC: Andrzej Kubiczek
!!!END: 2021-03-21
!!!ENC: Andrzej Kubiczek
!!!END: 2021-03-06
